assets/icons/origin.svg

<svg width="31" height="37" viewBox="0 0 31 37" fill="none" xmlns="http://www.w3.org/2000/svg">
<path d="M21.466 24.1075C25.1673 18.1336 24.702 18.8789 24.8087 18.7231C26.1562 16.7681 26.8685 14.4672 26.8685 12.0689C26.8685 5.70879 21.8507 0.469482 15.6592 0.469482C9.48781 0.469482 4.44988 5.69845 4.44988 12.0689C4.44988 14.4657 5.17706 16.8268 6.56878 18.8082L9.85222 24.1076C6.34167 24.6625 0.373779 26.3161 0.373779 29.9572C0.373779 31.2845 1.21604 33.176 5.22856 34.65C8.03033 35.6792 11.7346 36.246 15.6592 36.246C22.9979 36.246 30.9446 34.1168 30.9446 29.9572C30.9446 26.3155 24.9837 24.6636 21.466 24.1075ZM8.27116 17.6552C8.25996 17.6371 8.24827 17.6195 8.23604 17.6022C7.07795 15.9635 6.48794 14.0213 6.48794 12.0689C6.48794 6.82695 10.5916 2.56576 15.6592 2.56576C20.7162 2.56576 24.8304 6.82884 24.8304 12.0689C24.8304 14.0245 24.2515 15.9007 23.1561 17.4963C23.0579 17.6294 23.5701 16.8111 15.6592 29.5791L8.27116 17.6552ZM15.6592 34.1498C7.64324 34.1498 2.41183 31.7262 2.41183 29.9572C2.41183 28.7682 5.09989 26.8131 11.0564 26.051L14.7998 32.0927C14.9869 32.3947 15.3109 32.5775 15.6591 32.5775C16.0073 32.5775 16.3314 32.3947 16.5184 32.0927L20.2617 26.051C26.2184 26.8131 28.9065 28.7682 28.9065 29.9572C28.9065 31.7112 23.7222 34.1498 15.6592 34.1498Z" fill="black"/>
<path d="M15.6594 6.82817C12.85 6.82817 10.5643 9.17915 10.5643 12.0689C10.5643 14.9586 12.85 17.3096 15.6594 17.3096C18.4689 17.3096 20.7546 14.9586 20.7546 12.0689C20.7546 9.17915 18.4689 6.82817 15.6594 6.82817ZM15.6594 15.2133C13.9738 15.2133 12.6024 13.8027 12.6024 12.0689C12.6024 10.335 13.9738 8.92446 15.6594 8.92446C17.3451 8.92446 18.7165 10.335 18.7165 12.0689C18.7165 13.8027 17.3451 15.2133 15.6594 15.2133Z" fill="black"/>
</svg>

<svg width="31" height="37" fill="none" xmlns="http://www.w3.org/2000/svg"><path d="M21.466 24.108c3.701-5.974 3.236-5.23 3.343-5.385a11.67 11.67 0 002.06-6.654c0-6.36-5.018-11.6-11.21-11.6C9.488.47 4.45 5.7 4.45 12.07c0 2.397.728 4.758 2.12 6.74l3.283 5.299c-3.51.555-9.478 2.208-9.478 5.85 0 1.327.842 3.218 4.855 4.692 2.801 1.03 6.506 1.596 10.43 1.596 7.339 0 15.286-2.13 15.286-6.289 0-3.642-5.961-5.293-9.479-5.85zM8.271 17.655a9.588 9.588 0 01-1.783-5.586c0-5.242 4.104-9.503 9.171-9.503 5.057 0 9.171 4.263 9.171 9.503a9.544 9.544 0 01-1.674 5.427c-.098.133.414-.685-7.497 12.083L8.271 17.655zM15.66 34.15c-8.016 0-13.247-2.424-13.247-4.193 0-1.189 2.688-3.144 8.644-3.906l3.744 6.042c.187.302.51.484.86.484.347 0 .671-.182.858-.484l3.744-6.042c5.956.762 8.645 2.717 8.645 3.906 0 1.754-5.185 4.193-13.248 4.193z" fill="#000"/><path d="M15.66 6.828c-2.81 0-5.096 2.351-5.096 5.24 0 2.89 2.286 5.242 5.095 5.242 2.81 0 5.096-2.351 5.096-5.241 0-2.89-2.286-5.24-5.096-5.24zm0 8.385c-1.686 0-3.058-1.41-3.058-3.144 0-1.734 1.372-3.145 3.057-3.145 1.686 0 3.057 1.411 3.057 3.145s-1.37 3.144-3.057 3.144z" fill="#000"/></svg>
